X: 629
T: Active Old Man, The
R: jig
M: 6/8
K: Gmajor
G2G GBG|G2G AFD|G2G GBG|GcA AFA|
G2G GBG|G2G AFD|G2g gfe|dcB AFA||
G2d dAc|BGB AFA|G2d dAc|B2B AFD|
G2d dAc|BGB AFA|G2g gfe|dcB AFA||
G2g gdc|BGB AFA|G2g gdc|B2B AFD|
G2g gdc|BGB AFA|G2g gfe|dcB AFA||
def gdf|dfg G2G|efg gd=f|efg A2g|
geg =fdf|ece dBd|dcB gfe|dcB AFA||

